assets/ionicons/svg/save.svg

<svg xmlns="http://www.w3.org/2000/svg" class="ionicon" viewBox="0 0 512 512"><title>Save</title><path d="M465.94 119.76l-73.7-73.7A47.68 47.68 0 00358.3 32H96a64 64 0 00-64 64v320a64 64 0 0064 64h320a64 64 0 0064-64V153.7a47.68 47.68 0 00-14.06-33.94zM120 112h176a8 8 0 018 8v48a8 8 0 01-8 8H120a8 8 0 01-8-8v-48a8 8 0 018-8zm139.75 319.91a80 80 0 1176.16-76.16 80.06 80.06 0 01-76.16 76.16z"/><circle cx="256" cy="352" r="48"/></svg>

<svg xmlns="http://www.w3.org/2000/svg" width="512" height="512" viewBox="0 0 512 512"><title>ionicons-v5-q</title><path d="M465.94,119.76l-73.7-73.7h0A47.68,47.68,0,0,0,358.3,32H96A64,64,0,0,0,32,96V416a64,64,0,0,0,64,64H416a64,64,0,0,0,64-64V153.7A47.68,47.68,0,0,0,465.94,119.76ZM120,112H296a8,8,0,0,1,8,8v48a8,8,0,0,1-8,8H120a8,8,0,0,1-8-8V120A8,8,0,0,1,120,112ZM259.75,431.91a80,80,0,1,1,76.16-76.16A80.06,80.06,0,0,1,259.75,431.91Z"/><circle cx="256" cy="352" r="48"/></svg>
